X:211
T: KOMM ICH EINST AUS FREMDEN LANDEN
N: E0788
O: Europa, Mitteleuropa, Deutschland, Hessen, Lahn - Tal
R: Abschieds - Lied, Liebe
M: 6/8
L: 1/16
K: G
 | B4d2B4d2 | G2B2d2e4d2 |
c4A2A4A2 | A2B2c2e4d2 |
B4B2B4B2 | B2c2d2g6 |
a4g2f4e2 | d4c2B4
dd | g4BBB4BB | B2c2d2e4
dd | c4AAA4AA | A2B2c2e6 |
B4B2B4B2 | B2c2d2g6 |
a4g2f4e2 | d4c2B6

@@@ Tune index: 4524
